X: 6903
T: Cheating Bastard, The
R: jig
M: 6/8
K: Ddorian
DDD DEG|AGA dcA|GED CDE|GEG BAG|
ADD DEG|AGA dcA|GED CDE|GEC D3:|
dAA ABc|dcB cBA|GED CDE|GEG BAG|
ABc dcd|edc dcA|GEE BAG|EDCD3:|

